X: 16
T:The Hanged Man's Reel
M:4/4
L:1/8
R:R:
O:French Canadian
N:A great tune played in open A tuning, such as AEAC# on a fiddle!
K:A
|:E (3AAA B c2 cc|c2 cB ABcA|E (3AAA c BABc|dcBA cAAB|
c2 cc c2 cB|ABcA EAAc|B/2B/2BGB A2 A2:|
|:E (3AAA B c2 cc|BABd c2 c2|E (3AAA B c2 cc|BABA A2 A2:|
|:e2 c2 +A,2A2+ ee|eccc BcAc|e2 c2 +A,2A2+ ee|eccc BcBA:|
B2 GB BBGB|BBGB AGAc|B2 GB BBGB|BBGB +A,4A4+:|
|:c/2A/2E/2A,/2 +c2A2E2A,2+ E2 A2|BABd cB A2|c/2A/2E/2A,/2 +c2A2E2A,2+ E
2 A2|BABd A4:|
|:AA c2 cc d2|dd c2 cA B2|BA c2 cc d2|ddce Be A2:|

